; G-Code generated by Simplify3D(R) Version 4.0.0
; Dec 4, 2018 at 7:50:29 PM
; Settings Summary
;   processName,Process1
;   applyToModels,3_Inch_Pointed_Double_Spoke
;   profileName,CR10 (modified)
;   profileVersion,2017-08-11 16:35:49
;   baseProfile,
;   printMaterial,
;   printQuality,
;   printExtruders,
;   extruderName,Primary Extruder
;   extruderToolheadNumber,0
;   extruderDiameter,0.5
;   extruderAutoWidth,1
;   extruderWidth,0.6
;   extrusionMultiplier,1.05
;   extruderUseRetract,1
;   extruderRetractionDistance,9
;   extruderExtraRestartDistance,0
;   extruderRetractionZLift,0
;   extruderRetractionSpeed,4800
;   extruderUseCoasting,1
;   extruderCoastingDistance,3
;   extruderUseWipe,0
;   extruderWipeDistance,5
;   primaryExtruder,0
;   layerHeight,0.25
;   topSolidLayers,1
;   bottomSolidLayers,1
;   perimeterOutlines,1
;   printPerimetersInsideOut,0
;   startPointOption,2
;   startPointOriginX,0
;   startPointOriginY,0
;   sequentialIslands,0
;   spiralVaseMode,0
;   firstLayerHeightPercentage,40
;   firstLayerWidthPercentage,130
;   firstLayerUnderspeed,0.6
;   useRaft,0
;   raftExtruder,0
;   raftTopLayers,1
;   raftBaseLayers,1
;   raftOffset,2
;   raftSeparationDistance,0.24
;   raftTopInfill,100
;   aboveRaftSpeedMultiplier,0.3
;   useSkirt,1
;   skirtExtruder,0
;   skirtLayers,1
;   skirtOutlines,1
;   skirtOffset,1
;   usePrimePillar,0
;   primePillarExtruder,999
;   primePillarWidth,12
;   primePillarLocation,7
;   primePillarSpeedMultiplier,1
;   useOozeShield,0
;   oozeShieldExtruder,999
;   oozeShieldOffset,2
;   oozeShieldOutlines,1
;   oozeShieldSidewallShape,1
;   oozeShieldSidewallAngle,30
;   oozeShieldSpeedMultiplier,1
;   infillExtruder,0
;   internalInfillPattern,Rectilinear
;   externalInfillPattern,Rectilinear
;   infillPercentage,0
;   outlineOverlapPercentage,20
;   infillExtrusionWidthPercentage,100
;   minInfillLength,5
;   infillLayerInterval,1
;   internalInfillAngles,45,-45
;   overlapInternalInfillAngles,0
;   externalInfillAngles,45,-45
;   generateSupport,0
;   supportExtruder,0
;   supportInfillPercentage,15
;   supportExtraInflation,0.8
;   supportBaseLayers,0
;   denseSupportExtruder,0
;   denseSupportLayers,2
;   denseSupportInfillPercentage,70
;   supportLayerInterval,1
;   supportHorizontalPartOffset,0.8
;   supportUpperSeparationLayers,1
;   supportLowerSeparationLayers,1
;   supportType,0
;   supportGridSpacing,3
;   maxOverhangAngle,50
;   supportAngles,0
;   temperatureName,Primary Extruder,Heated Bed
;   temperatureNumber,0,0
;   temperatureSetpointCount,2,1
;   temperatureSetpointLayers,1,2,1
;   temperatureSetpointTemperatures,240,240,70
;   temperatureStabilizeAtStartup,1,1
;   temperatureHeatedBed,0,1
;   temperatureRelayBetweenLayers,0,0
;   temperatureRelayBetweenLoops,0,0
;   fanLayers,1,2
;   fanSpeeds,0,50
;   blipFanToFullPower,0
;   adjustSpeedForCooling,1
;   minSpeedLayerTime,15
;   minCoolingSpeedSlowdown,20
;   increaseFanForCooling,0
;   minFanLayerTime,45
;   maxCoolingFanSpeed,100
;   increaseFanForBridging,0
;   bridgingFanSpeed,100
;   use5D,1
;   relativeEdistances,0
;   allowEaxisZeroing,1
;   independentExtruderAxes,0
;   includeM10123,0
;   stickySupport,1
;   applyToolheadOffsets,0
;   gcodeXoffset,0
;   gcodeYoffset,0
;   gcodeZoffset,0
;   overrideMachineDefinition,1
;   machineTypeOverride,0
;   strokeXoverride,300
;   strokeYoverride,300
;   strokeZoverride,400
;   originOffsetXoverride,0
;   originOffsetYoverride,0
;   originOffsetZoverride,0
;   homeXdirOverride,-1
;   homeYdirOverride,-1
;   homeZdirOverride,-1
;   flipXoverride,1
;   flipYoverride,-1
;   flipZoverride,1
;   toolheadOffsets,0,0|0,0|0,0|0,0|0,0|0,0
;   overrideFirmwareConfiguration,0
;   firmwareTypeOverride,RepRap (Marlin/Repetier/Sprinter)
;   GPXconfigOverride,r2
;   baudRateOverride,115200
;   overridePrinterModels,0
;   printerModelsOverride
;   startingGcode,G28 ; home all axes,G1 Z5 F3000 ; lift,G1 X20 Y2 F1500 ; avoid binder clips,G1 Z0.2 F3000 ; get ready to prime,G92 E0 ; reset extrusion distance,G1 X120 E10 F600 ; prime nozzle,G1 X150 F5000 ; quick wipe
;   layerChangeGcode,
;   retractionGcode,
;   toolChangeGcode,
;   endingGcode,M104 S0 ;extruder heater off,M140 S0 ;heated bed heater off (if you have it),G91 ;relative positioning,G1 E-1 F300 ;retract the filament a bit before lifting the nozzle, to release some of the pressure,G1 Z+0.5 E-5 X-20 Y-20 F{travel_speed} ;move Z up a bit and retract filament even more,G28 X0 Y0 ;move X/Y to min endstops, so the head is out of the way,M84 ;steppers off,G90 ;absolute positioning
;   exportFileFormat,gcode
;   celebration,0
;   celebrationSong,Random Song
;   postProcessing,
;   defaultSpeed,3900
;   outlineUnderspeed,0.75
;   solidInfillUnderspeed,0.8
;   supportUnderspeed,0.8
;   rapidXYspeed,4800
;   rapidZspeed,1002
;   minBridgingArea,50
;   bridgingExtraInflation,0
;   bridgingExtrusionMultiplier,1
;   bridgingSpeedMultiplier,0.5
;   useFixedBridgingAngle,0
;   fixedBridgingAngle,0
;   applyBridgingToPerimeters,0
;   filamentDiameters,1.75|1.75|1.75|1.75|1.75|1.75
;   filamentPricesPerKg,25|46|46|46|46|46
;   filamentDensities,1.25|1.25|1.25|1.25|1.25|1.25
;   useMinPrintHeight,0
;   minPrintHeight,5
;   useMaxPrintHeight,0
;   maxPrintHeight,0
;   useDiaphragm,0
;   diaphragmLayerInterval,20
;   robustSlicing,1
;   mergeAllIntoSolid,0
;   onlyRetractWhenCrossingOutline,1
;   retractBetweenLayers,1
;   useRetractionMinTravel,0
;   retractionMinTravel,3
;   retractWhileWiping,0
;   onlyWipeOutlines,1
;   avoidCrossingOutline,0
;   maxMovementDetourFactor,3
;   toolChangeRetractionDistance,12
;   toolChangeExtraRestartDistance,-0.5
;   toolChangeRetractionSpeed,600
;   externalThinWallType,0
;   internalThinWallType,2
;   thinWallAllowedOverlapPercentage,10
;   singleExtrusionMinLength,1
;   singleExtrusionMinPrintingWidthPercentage,50
;   singleExtrusionMaxPrintingWidthPercentage,200
;   singleExtrusionEndpointExtension,0.2
;   horizontalSizeCompensation,0
G90
M82
M106 S0
M140 S70
M190 S70
M104 S240 T0
M109 S240 T0
G28 ; home all axes
G1 Z5 F3000 ; lift
G1 X20 Y2 F1500 ; avoid binder clips
G1 Z0.2 F3000 ; get ready to prime
G92 E0 ; reset extrusion distance
G1 X120 E10 F600 ; prime nozzle
G1 X150 F5000 ; quick wipe
G92 E0
G1 E-9.0000 F4800
G1 Z0.100 F1002
; process Process1
; layer 1, Z = 0.100
T0
; tool H0.250 W0.780
; skirt
G1 X118.940 Y118.114 F4800
G1 E0.0000 F1440
G92 E0
G1 X122.062 Y118.114 E0.2658 F2340
G1 X122.120 Y118.125 E0.2708
G1 X122.542 Y118.300 E0.3097
G1 X122.591 Y118.333 E0.3148
G1 X124.792 Y120.534 E0.5797
G1 X125.688 Y120.534 E0.6560
G1 X125.984 Y119.478 E0.7493
G1 X124.288 Y116.940 E1.0092
G1 X124.266 Y116.885 E1.0142
G1 X124.177 Y116.437 E1.0531
G1 X124.177 Y116.378 E1.0581
G1 X124.786 Y113.316 E1.3239
G1 X124.852 Y113.217 E1.3341
G1 X125.640 Y112.690 E1.4148
G1 X125.757 Y112.667 E1.4249
G1 X128.820 Y113.276 E1.6907
G1 X128.874 Y113.298 E1.6957
G1 X129.254 Y113.552 E1.7346
G1 X129.296 Y113.594 E1.7397
G1 X131.025 Y116.182 E2.0046
G1 X131.904 Y116.357 E2.0809
G1 X132.400 Y115.380 E2.1742
G1 X131.232 Y112.559 E2.4341
G1 X131.221 Y112.501 E2.4391
G1 X131.221 Y112.044 E2.4780
G1 X131.232 Y111.986 E2.4830
G1 X132.427 Y109.102 E2.7488
G1 X132.511 Y109.017 E2.7590
G1 X133.387 Y108.654 E2.8397
G1 X133.506 Y108.654 E2.8498
G1 X136.391 Y109.849 E3.1156
G1 X136.440 Y109.882 E3.1207
G1 X136.763 Y110.205 E3.1596
G1 X136.796 Y110.254 E3.1646
G1 X137.987 Y113.130 E3.4295
G1 X138.815 Y113.473 E3.5058
G1 X139.493 Y112.611 E3.5991
G1 X138.897 Y109.617 E3.8590
G1 X138.897 Y109.558 E3.8640
G1 X138.986 Y109.110 E3.9029
G1 X139.009 Y109.055 E3.9079
G1 X140.744 Y106.459 E4.1737
G1 X140.843 Y106.393 E4.1839
G1 X141.772 Y106.208 E4.2646
G1 X141.889 Y106.231 E4.2747
G1 X144.486 Y107.966 E4.5405
G1 X144.527 Y108.008 E4.5456
G1 X144.781 Y108.388 E4.5845
G1 X144.804 Y108.442 E4.5895
G1 X145.411 Y111.495 E4.8544
G1 X146.156 Y111.993 E4.9307
G1 X146.989 Y111.280 E5.0240
G1 X146.989 Y108.227 E5.2839
G1 X147.000 Y108.169 E5.2889
G1 X147.175 Y107.747 E5.3278
G1 X147.208 Y107.698 E5.3329
G1 X149.416 Y105.490 E5.5987
G1 X149.526 Y105.444 E5.6088
G1 X150.474 Y105.444 E5.6895
G1 X150.584 Y105.490 E5.6997
G1 X152.792 Y107.698 E5.9655
G1 X152.825 Y107.747 E5.9705
G1 X153.000 Y108.169 E6.0094
G1 X153.011 Y108.227 E6.0144
G1 X153.011 Y111.340 E6.2794
G1 X153.645 Y111.973 E6.3556
G1 X154.601 Y111.436 E6.4490
G1 X155.196 Y108.442 E6.7088
G1 X155.219 Y108.388 E6.7138
G1 X155.473 Y108.008 E6.7527
G1 X155.514 Y107.966 E6.7578
G1 X158.111 Y106.231 E7.0236
G1 X158.228 Y106.208 E7.0337
G1 X159.157 Y106.393 E7.1144
G1 X159.256 Y106.459 E7.1246
G1 X160.991 Y109.055 E7.3904
G1 X161.014 Y109.110 E7.3954
G1 X161.103 Y109.558 E7.4343
G1 X161.103 Y109.617 E7.4393
G1 X160.496 Y112.670 E7.7043
G1 X160.994 Y113.415 E7.7806
G1 X162.036 Y113.075 E7.8739
G1 X163.204 Y110.254 E8.1337
G1 X163.237 Y110.205 E8.1388
G1 X163.560 Y109.882 E8.1777
G1 X163.609 Y109.849 E8.1827
G1 X166.494 Y108.654 E8.4485
G1 X166.613 Y108.654 E8.4586
G1 X167.489 Y109.017 E8.5393
G1 X167.573 Y109.102 E8.5495
G1 X168.768 Y111.986 E8.8153
G1 X168.779 Y112.044 E8.8203
G1 X168.779 Y112.501 E8.8592
G1 X168.768 Y112.559 E8.8642
G1 X167.577 Y115.435 E9.1292
G1 X167.920 Y116.263 E9.2055
G1 X169.008 Y116.132 E9.2988
G1 X170.704 Y113.594 E9.5586
G1 X170.746 Y113.552 E9.5637
G1 X171.126 Y113.298 E9.6026
G1 X171.180 Y113.276 E9.6076
G1 X174.243 Y112.667 E9.8734
G1 X174.360 Y112.690 E9.8836
G1 X175.148 Y113.216 E9.9642
G1 X175.214 Y113.316 E9.9744
G1 X175.823 Y116.378 E10.2402
G1 X175.823 Y116.437 E10.2452
G1 X175.734 Y116.885 E10.2841
G1 X175.712 Y116.940 E10.2892
G1 X173.982 Y119.528 E10.5541
G1 X174.157 Y120.407 E10.6304
G1 X175.250 Y120.491 E10.7237
G1 X177.409 Y118.333 E10.9836
G1 X177.458 Y118.300 E10.9886
G1 X177.880 Y118.125 E11.0275
G1 X177.938 Y118.114 E11.0325
G1 X181.060 Y118.114 E11.2983
G1 X181.171 Y118.159 E11.3085
G1 X181.841 Y118.829 E11.3892
G1 X181.886 Y118.940 E11.3993
G1 X181.886 Y122.062 E11.6651
G1 X181.875 Y122.120 E11.6701
G1 X181.700 Y122.542 E11.7090
G1 X181.667 Y122.591 E11.7141
G1 X179.466 Y124.792 E11.9790
G1 X179.466 Y125.688 E12.0553
G1 X180.522 Y125.984 E12.1486
G1 X183.060 Y124.288 E12.4085
G1 X183.115 Y124.266 E12.4135
G1 X183.563 Y124.177 E12.4524
G1 X183.622 Y124.177 E12.4574
G1 X186.684 Y124.786 E12.7232
G1 X186.783 Y124.852 E12.7334
G1 X187.310 Y125.640 E12.8141
G1 X187.333 Y125.757 E12.8242
G1 X186.724 Y128.820 E13.0900
G1 X186.702 Y128.874 E13.0951
G1 X186.448 Y129.254 E13.1340
G1 X186.406 Y129.296 E13.1390
G1 X183.818 Y131.025 E13.4039
G1 X183.643 Y131.904 E13.4802
G1 X184.620 Y132.400 E13.5735
G1 X187.441 Y131.232 E13.8334
G1 X187.499 Y131.221 E13.8384
G1 X187.956 Y131.221 E13.8773
G1 X188.014 Y131.232 E13.8823
G1 X190.898 Y132.427 E14.1481
G1 X190.983 Y132.511 E14.1583
G1 X191.345 Y133.387 E14.2390
G1 X191.345 Y133.506 E14.2491
G1 X190.151 Y136.391 E14.5149
G1 X190.118 Y136.440 E14.5200
G1 X189.795 Y136.763 E14.5589
G1 X189.746 Y136.796 E14.5639
G1 X186.870 Y137.987 E14.8288
G1 X186.527 Y138.815 E14.9051
G1 X187.389 Y139.493 E14.9984
G1 X190.383 Y138.897 E15.2583
G1 X190.442 Y138.897 E15.2633
G1 X190.890 Y138.986 E15.3022
G1 X190.945 Y139.009 E15.3073
G1 X193.541 Y140.744 E15.5731
G1 X193.607 Y140.843 E15.5832
G1 X193.792 Y141.772 E15.6639
G1 X193.769 Y141.889 E15.6741
G1 X192.034 Y144.486 E15.9399
G1 X191.992 Y144.527 E15.9449
G1 X191.612 Y144.781 E15.9838
G1 X191.558 Y144.804 E15.9888
G1 X188.564 Y145.399 E16.2487
G1 X188.027 Y146.355 E16.3420
G1 X188.660 Y146.989 E16.4183
G1 X191.773 Y146.989 E16.6832
G1 X191.831 Y147.000 E16.6882
G1 X192.253 Y147.175 E16.7271
G1 X192.302 Y147.208 E16.7322
G1 X194.510 Y149.416 E16.9980
G1 X194.556 Y149.526 E17.0081
G1 X194.556 Y150.474 E17.0888
G1 X194.510 Y150.584 E17.0990
G1 X192.302 Y152.792 E17.3648
G1 X192.253 Y152.825 E17.3698
G1 X191.831 Y153.000 E17.4087
G1 X191.773 Y153.011 E17.4137
G1 X188.660 Y153.011 E17.6787
G1 X188.027 Y153.645 E17.7550
G1 X188.564 Y154.601 E17.8483
G1 X191.558 Y155.196 E18.1081
G1 X191.612 Y155.219 E18.1132
G1 X191.992 Y155.473 E18.1521
G1 X192.034 Y155.514 E18.1571
G1 X193.769 Y158.111 E18.4229
G1 X193.792 Y158.228 E18.4330
G1 X193.607 Y159.157 E18.5137
G1 X193.541 Y159.256 E18.5239
G1 X190.945 Y160.991 E18.7897
G1 X190.890 Y161.014 E18.7947
G1 X190.442 Y161.103 E18.8336
G1 X190.383 Y161.103 E18.8386
G1 X187.330 Y160.496 E19.1036
G1 X186.585 Y160.994 E19.1799
G1 X186.925 Y162.036 E19.2732
G1 X189.746 Y163.204 E19.5330
G1 X189.795 Y163.237 E19.5381
G1 X190.118 Y163.560 E19.5770
G1 X190.151 Y163.609 E19.5820
G1 X191.345 Y166.494 E19.8478
G1 X191.345 Y166.613 E19.8580
G1 X190.983 Y167.489 E19.9386
G1 X190.898 Y167.573 E19.9488
G1 X188.014 Y168.768 E20.2146
G1 X187.956 Y168.779 E20.2196
G1 X187.499 Y168.779 E20.2585
G1 X187.441 Y168.768 E20.2636
G1 X184.565 Y167.577 E20.5285
G1 X183.737 Y167.920 E20.6048
G1 X183.868 Y169.008 E20.6981
G1 X186.406 Y170.704 E20.9580
G1 X186.448 Y170.746 E20.9630
G1 X186.702 Y171.126 E21.0019
G1 X186.724 Y171.180 E21.0069
G1 X187.333 Y174.243 E21.2727
G1 X187.310 Y174.360 E21.2829
G1 X186.783 Y175.148 E21.3636
G1 X186.684 Y175.214 E21.3737
G1 X183.622 Y175.823 E21.6395
G1 X183.563 Y175.823 E21.6445
G1 X183.115 Y175.734 E21.6834
G1 X183.060 Y175.712 E21.6885
G1 X180.472 Y173.982 E21.9534
G1 X179.593 Y174.157 E22.0297
G1 X179.509 Y175.250 E22.1230
G1 X181.667 Y177.409 E22.3829
G1 X181.700 Y177.458 E22.3879
G1 X181.875 Y177.880 E22.4268
G1 X181.886 Y177.938 E22.4318
G1 X181.886 Y181.060 E22.6976
G1 X181.841 Y181.171 E22.7078
G1 X181.171 Y181.841 E22.7885
G1 X181.060 Y181.886 E22.7986
G1 X177.938 Y181.886 E23.0644
G1 X177.880 Y181.875 E23.0695
G1 X177.458 Y181.700 E23.1084
G1 X177.409 Y181.667 E23.1134
G1 X175.208 Y179.466 E23.3783
G1 X174.312 Y179.466 E23.4546
G1 X174.016 Y180.522 E23.5479
G1 X175.712 Y183.060 E23.8078
G1 X175.734 Y183.115 E23.8128
G1 X175.823 Y183.563 E23.8517
G1 X175.823 Y183.622 E23.8568
G1 X175.214 Y186.684 E24.1225
G1 X175.148 Y186.783 E24.1327
G1 X174.360 Y187.310 E24.2134
G1 X174.243 Y187.333 E24.2235
G1 X171.180 Y186.724 E24.4893
G1 X171.126 Y186.702 E24.4944
G1 X170.746 Y186.448 E24.5333
G1 X170.704 Y186.406 E24.5383
G1 X168.975 Y183.818 E24.8033
G1 X168.096 Y183.643 E24.8795
G1 X167.600 Y184.620 E24.9728
G1 X168.768 Y187.441 E25.2327
G1 X168.779 Y187.499 E25.2377
G1 X168.779 Y187.956 E25.2766
G1 X168.768 Y188.014 E25.2817
G1 X167.573 Y190.898 E25.5475
G1 X167.489 Y190.983 E25.5576
G1 X166.613 Y191.345 E25.6383
G1 X166.494 Y191.345 E25.6485
G1 X163.609 Y190.151 E25.9143
G1 X163.560 Y190.118 E25.9193
G1 X163.237 Y189.795 E25.9582
G1 X163.204 Y189.746 E25.9632
G1 X162.013 Y186.870 E26.2282
G1 X161.185 Y186.527 E26.3044
G1 X160.507 Y187.389 E26.3978
G1 X161.103 Y190.383 E26.6576
G1 X161.103 Y190.442 E26.6627
G1 X161.014 Y190.890 E26.7015
G1 X160.991 Y190.945 E26.7066
G1 X159.256 Y193.541 E26.9724
G1 X159.157 Y193.607 E26.9825
G1 X158.228 Y193.792 E27.0632
G1 X158.111 Y193.769 E27.0734
G1 X155.514 Y192.034 E27.3392
G1 X155.473 Y191.992 E27.3442
G1 X155.219 Y191.612 E27.3831
G1 X155.196 Y191.558 E27.3881
G1 X154.589 Y188.505 E27.6531
G1 X153.844 Y188.007 E27.7294
G1 X153.011 Y188.720 E27.8227
G1 X153.011 Y191.773 E28.0825
G1 X153.000 Y191.831 E28.0876
G1 X152.825 Y192.253 E28.1265
G1 X152.792 Y192.302 E28.1315
G1 X150.584 Y194.510 E28.3973
G1 X150.474 Y194.556 E28.4074
G1 X149.526 Y194.556 E28.4881
G1 X149.416 Y194.510 E28.4983
G1 X147.208 Y192.302 E28.7641
G1 X147.175 Y192.253 E28.7691
G1 X147.000 Y191.831 E28.8080
G1 X146.989 Y191.773 E28.8130
G1 X146.989 Y188.660 E29.0780
